<?xml version="1.0" encoding="UTF-8"?>
<map version="1.10" tiledversion="1.12.1" orientation="orthogonal" renderorder="right-down" width="32" height="16" tilewidth="16" tileheight="16" infinite="0" nextlayerid="2" nextobjectid="1">
 <editorsettings>
  <export target="test.csv" format="csv"/>
 </editorsettings>
 <tileset firstgid="1" source="tileset.tsx"/>
 <layer id="1" name="Tile Layer 1" width="32" height="16">
  <data encoding="csv">
85,86,95,96,85,86,95,96,2,2,2,2,2,2,2,2,2,2,2,2,95,96,95,96,85,86,85,86,95,96,95,96,
95,96,85,86,95,96,2,1,2,2,2,2,2,2,8,8,8,2,1,2,2,2,2,2,95,96,95,96,85,86,85,86,
2,2,95,96,2,2,2,8,2,2,2,2,2,2,2,1,3,2,2,2,2,2,2,2,8,8,85,86,95,96,95,96,
2,2,2,2,2,2,2,2,2,2,1,8,2,2,2,2,2,1,2,2,2,2,2,2,2,2,95,96,2,2,85,86,
2,2,8,1,2,2,2,2,2,2,8,3,2,2,2,8,2,2,2,2,2,2,2,2,2,2,2,2,2,2,95,96,
2,8,8,8,2,2,2,2,2,2,2,1,2,2,2,2,48,49,49,49,50,2,2,18,19,19,19,19,20,2,2,85,
1,18,19,19,19,19,19,19,20,2,2,2,2,2,2,2,58,59,59,59,60,2,2,28,2,2,2,62,30,2,2,95,
1,28,8,8,10,10,9,9,30,2,2,2,2,2,8,2,68,69,69,69,70,2,8,28,2,2,2,2,30,2,85,86,
8,28,8,8,10,10,9,9,30,2,2,2,2,2,2,2,88,98,99,100,90,2,1,28,4,3,4,2,30,2,95,96,
8,28,8,8,10,10,9,9,30,2,2,2,2,2,2,2,2,2,2,2,2,2,2,28,2,2,2,2,30,85,86,85,
1,28,8,8,10,10,9,9,30,8,1,2,2,2,2,2,2,2,1,2,2,2,2,38,39,39,29,39,40,95,96,95,
8,28,8,8,10,10,9,9,30,3,8,2,2,1,2,2,2,2,2,2,2,2,2,2,2,2,2,2,2,2,85,86,
2,38,39,39,39,39,29,39,40,8,8,2,2,2,2,21,22,22,22,22,22,22,22,23,2,2,2,2,2,2,95,96,
8,1,2,2,2,2,2,2,2,2,1,8,2,2,2,31,32,32,32,32,32,32,32,33,2,2,2,2,2,2,85,86,
1,8,2,2,2,2,1,2,2,2,2,2,2,2,21,45,32,32,32,32,32,32,32,44,23,2,2,4,3,2,95,96,
2,2,2,2,2,2,2,2,2,2,2,2,2,2,31,32,32,32,32,32,32,32,32,32,33,2,4,3,8,3,2,85
</data>
 </layer>
</map>
